svgs/duotone/file-import.svg

<svg xmlns="http://www.w3.org/2000/svg" viewBox="0 0 512 512"><!--! Font Awesome Pro 6.3.0 by @fontawesome - https://fontawesome.com License - https://fontawesome.com/license (Commercial License) Copyright 2023 Fonticons, Inc. --><defs><style>.fa-secondary{opacity:.4}</style></defs><path class="fa-primary" d="M384 0v128h128L384 0zM296.1 215c-9.375-9.375-24.56-9.375-33.94 0s-9.375 24.56 0 33.94L302.1 288H24C10.75 288 0 298.8 0 312s10.75 24 24 24h278.1l-39.03 39.03C258.3 379.7 256 385.8 256 392s2.344 12.28 7.031 16.97c9.375 9.375 24.56 9.375 33.94 0l80-80c9.375-9.375 9.375-24.56 0-33.94L296.1 215z"/><path class="fa-secondary" d="M512 128v336c0 26.51-21.49 48-48 48h-288C149.5 512 128 490.5 128 464v-128h174.1l-39.03 39.03C258.3 379.7 256 385.8 256 392s2.344 12.28 7.031 16.97c9.375 9.375 24.56 9.375 33.94 0l80-80c9.375-9.375 9.375-24.56 0-33.94l-80-80c-9.375-9.375-24.56-9.375-33.94 0s-9.375 24.56 0 33.94L302.1 288H128V48C128 21.49 149.5 0 176 0H384v128H512z"/></svg>

<svg xmlns="http://www.w3.org/2000/svg" viewBox="0 0 512 512"><!-- Font Awesome Pro 6.0.0-alpha2 by @fontawesome - https://fontawesome.com License - https://fontawesome.com/license (Commercial License) --><defs><style>.fa-secondary{opacity:.4}</style></defs><path d="M512 128V464C512 490.508 490.51 512 464 512H176C149.49 512 128 490.508 128 464V336H302.062L263.031 375.031C258.344 379.719 256 385.844 256 392S258.344 404.281 263.031 408.969C272.406 418.344 287.594 418.344 296.969 408.969L376.969 328.969C386.344 319.594 386.344 304.406 376.969 295.031L296.969 215.031C287.594 205.656 272.406 205.656 263.031 215.031S253.656 239.594 263.031 248.969L302.062 288H128V48C128 21.492 149.49 0 176 0H384V128H512Z" class="fa-secondary"/><path d="M384 0V128H512L384 0ZM296.969 215.031C287.594 205.656 272.406 205.656 263.031 215.031S253.656 239.594 263.031 248.969L302.062 288H24C10.75 288 0 298.75 0 312S10.75 336 24 336H302.062L263.031 375.031C258.344 379.719 256 385.844 256 392S258.344 404.281 263.031 408.969C272.406 418.344 287.594 418.344 296.969 408.969L376.969 328.969C386.344 319.594 386.344 304.406 376.969 295.031L296.969 215.031Z" class="fa-primary"/></svg>
